Yaru++/mimetypes/16/text-x.gcode.svg

<svg height="16" viewBox="0 0 4.233125 4.233125" width="16" xmlns="http://www.w3.org/2000/svg" xmlns:xlink="http://www.w3.org/1999/xlink"><linearGradient id="a" gradientUnits="userSpaceOnUse" x1="2.116711" x2="2.116711" y1=".264566" y2="3.968551"><stop offset="0" stop-color="#fff"/><stop offset=".125" stop-color="#fff" stop-opacity=".098039"/><stop offset=".92500001" stop-color="#fff" stop-opacity=".098039"/><stop offset="1" stop-color="#fff" stop-opacity=".498039"/></linearGradient><linearGradient id="b" gradientTransform="matrix(0 -.00953618 .00953591 0 -.942985 4.473639)" gradientUnits="userSpaceOnUse" x1="459.03448" x2="35.310345" y1="419.23337" y2="207.36522"><stop offset="0" stop-color="#f2f2f2"/><stop offset="1" stop-color="#f9f9f9"/></linearGradient><path d="m1.3483182.264567c-.1902366 0-.3444308.0037-.48573253.02739-.1413044.02373-.2826405.0731-.3906566.180858-.1080135.107759-.1578347.24955-.1813736.391169-.023547.141622-.026772.296446-.025848.487286v.765291 1.031411c-.0007937.190004.00238.344563.025848.485735.023547.14162.073358.283411.1813736.39117.1080161.107762.2493522.157139.3906566.180858.14130173.02373.29549593.02739.48573253.02739h1.5367831c.1902367 0 .3440949-.0036.4852167-.02739.1411245-.02376.2824765-.07353.3901381-.181374s.1571653-.249413.1808576-.390654c.023695-.141243.027388-.29513.027388-.485735v-1.031413-.793711l-1.0582809-1.058281z" opacity=".1"/><path d="m1.3485193.264567c-.74283143 0-.82275813.0763-.81911763.820633v1.031359 1.031358c-.00365.744335.076286.820634.81911763.820634h1.5364921c.7428341 0 .8191203-.07629.8191203-.820634v-1.031358-1.058282l-.7937109-.79371z" fill="none" opacity=".2" stroke="#000" stroke-width=".529141"/><path d="m1.3485193.264567c-.74283143 0-.82275813.0763-.81911763.820633v1.031359 1.031358c-.00365.744335.076286.820634.81911763.820634h1.5364921c.7428341 0 .8191203-.07629.8191203-.820634v-1.031358-1.058282l-.7937109-.79371z" fill="url(#b)"/><path d="m2.3812801 1.587418c-.2893738 0-.558799.05306-.7601238.232015-.2013247.178955-.2981575.462482-.2981575.826266 0 .363785.094851.642411.2831723.821616.1883211.179201.4420917.236666.6965633.236666.264872 0 .4646226-.05484.6076864-.139003v-.519322-.399957h-.5291407v.655743c-.027592.0013-.046914.0057-.078546.0057-.1962291 0-.3329802-.04175-.4226907-.127118-.08971-.08537-.1601894-.236671-.1601894-.534313s.068524-.444042.1648405-.529656c.096317-.08562.2568184-.13177.4965853-.13177.190689 0 .3028086.05787.3028086.05787l.1787914-.353971s-.2016714-.100764-.4816-.100764z" fill="#ad0000"/><path d="m2.1167098.264567v3.703984h.7683915c.7428341 0 .8190304-.07624.8190304-.820581v-1.031411-1.058282l-.7937109-.79371z" fill="#fff" opacity=".2"/><path d="m.52928787 2.116559v1.031411c-.00365.744334.076199.820581.81903033.820581h1.5367831c.7428341 0 .8190304-.07624.8190304-.820581v-1.031411z" fill="#fff" opacity=".2"/><path d="m1.3483182.264567c-.74283143 0-.82267083.07625-.81903033.82058v1.031412 1.031411c-.00365.744334.076199.820581.81903033.820581h1.5367831c.7428341 0 .8190304-.07624.8190304-.820581v-1.031411-1.058282l-.7937109-.79371zm0 .26457h1.5621026l.5291406.52914v1.058282 1.031411c0 .181567-.00582.315998-.019631.398406-.013811.08241-.029841.09959-.034103.103865-.00426.0043-.021245.02029-.1033491.0341-.082112.01382-.2161962.01964-.3973767.01964h-1.5367834c-.1811777 0-.3153969-.0063-.39788723-.02016-.082493-.01384-.1000156-.02924-.104381-.03359-.00436-.0044-.019949-.02132-.03359-.103349-.013625-.08203-.019499-.216564-.018599-.39789v-.000529-1.031906-1.031928-.000529c-.0007937-.181328.00497-.31586.018599-.39789.013625-.08203.029222-.09899.03359-.103349.00437-.0044.02188-.01974.104381-.03359.08249-.01384.21670953-.02016.39788723-.02016z" fill="url(#a)" opacity=".4"/><path d="m3.7041317 1.322848v-.264571l-.7937109-.79371h-.2645704v.404943.01553.0083c0 .547611.073304.632051.6221715.629365z" opacity=".2"/><path d="m3.7041317 1.058177-.7937109-.79361v.294384.01283.0069c0 .451778.020822.481764.4736364.47955z" fill="#faf8f6"/></svg>

<?xml version="1.0" encoding="UTF-8" standalone="no"?>
<svg
   xmlns:dc="http://purl.org/dc/elements/1.1/"
   xmlns:cc="http://creativecommons.org/ns#"
   xmlns:rdf="http://www.w3.org/1999/02/22-rdf-syntax-ns#"
   xmlns:svg="http://www.w3.org/2000/svg"
   xmlns="http://www.w3.org/2000/svg"
   xmlns:xlink="http://www.w3.org/1999/xlink"
   xmlns:sodipodi="http://sodipodi.sourceforge.net/DTD/sodipodi-0.dtd"
   xmlns:inkscape="http://www.inkscape.org/namespaces/inkscape"
   height="16"
   viewBox="0 0 4.233125 4.233125"
   width="16"
   version="1.1"
   id="svg39"
   sodipodi:docname="text-x.gcode.svg"
   inkscape:version="0.92.5 (2060ec1f9f, 2020-04-08)">
  <metadata
     id="metadata45">
    <rdf:RDF>
      <cc:Work
         rdf:about="">
        <dc:format>image/svg+xml</dc:format>
        <dc:type
           rdf:resource="http://purl.org/dc/dcmitype/StillImage" />
        <dc:title></dc:title>
      </cc:Work>
    </rdf:RDF>
  </metadata>
  <defs
     id="defs43">
    <linearGradient
       gradientTransform="matrix(0.26457031,0,0,0.26457031,-84.662351,-62.438597)"
       inkscape:collect="always"
       xlink:href="#linearGradient927"
       id="linearGradient993"
       x1="328"
       y1="237"
       x2="328"
       y2="251"
       gradientUnits="userSpaceOnUse" />
    <linearGradient
       inkscape:collect="always"
       id="linearGradient927">
      <stop
         style="stop-color:#ffffff;stop-opacity:1;"
         offset="0"
         id="stop923" />
      <stop
         id="stop933"
         offset="0.125"
         style="stop-color:#ffffff;stop-opacity:0.09803922" />
      <stop
         id="stop931"
         offset="0.92500001"
         style="stop-color:#ffffff;stop-opacity:0.09803922" />
      <stop
         style="stop-color:#ffffff;stop-opacity:0.49803922"
         offset="1"
         id="stop925" />
    </linearGradient>
    <linearGradient
       inkscape:collect="always"
       xlink:href="#linearGradient4338"
       id="linearGradient920"
       gradientUnits="userSpaceOnUse"
       gradientTransform="matrix(0,-0.00953618,0.00953591,0,-0.94298499,4.473639)"
       x1="459.03448"
       y1="419.23337"
       x2="35.310345"
       y2="207.36522" />
    <linearGradient
       inkscape:collect="always"
       id="linearGradient4338">
      <stop
         style="stop-color:#f2f2f2;stop-opacity:1"
         offset="0"
         id="stop4340" />
      <stop
         style="stop-color:#f9f9f9;stop-opacity:1"
         offset="1"
         id="stop4342" />
    </linearGradient>
  </defs>
  <sodipodi:namedview
     pagecolor="#ffffff"
     bordercolor="#666666"
     borderopacity="1"
     objecttolerance="10"
     gridtolerance="10"
     guidetolerance="10"
     inkscape:pageopacity="0"
     inkscape:pageshadow="2"
     inkscape:window-width="1920"
     inkscape:window-height="1024"
     id="namedview41"
     showgrid="false"
     inkscape:zoom="0.921875"
     inkscape:cx="-305.89831"
     inkscape:cy="128"
     inkscape:window-x="0"
     inkscape:window-y="28"
     inkscape:window-maximized="1"
     inkscape:current-layer="svg39" />
  <linearGradient
     id="a"
     gradientTransform="matrix(0,-0.11988932,0.11988589,0,0.36278,292.54831)"
     gradientUnits="userSpaceOnUse"
     x1="529.65503"
     x2="-35.310001"
     y1="401.58401"
     y2="119.093">
    <stop
       offset="0"
       stop-color="#f2f2f2"
       id="stop2" />
    <stop
       offset="1"
       stop-color="#f9f9f9"
       id="stop4" />
  </linearGradient>
  <linearGradient
     id="b"
     gradientUnits="userSpaceOnUse"
     x1="88"
     x2="488"
     y1="88"
     y2="488">
    <stop
       offset="0"
       stop-opacity=".588235"
       id="stop7" />
    <stop
       offset=".88"
       stop-opacity="0"
       id="stop9" />
    <stop
       offset="1"
       id="stop11" />
  </linearGradient>
  <filter
     id="c"
     height="1.022"
     width="1.026"
     x="-0.0099999998"
     y="-0.0099999998"
     style="color-interpolation-filters:sRGB">
    <feGaussianBlur
       stdDeviation="2.12"
       id="feGaussianBlur14" />
  </filter>
  <path
     style="color:#000000;font-style:normal;font-variant:normal;font-weight:normal;font-stretch:normal;font-size:medium;line-height:normal;font-family:sans-serif;font-variant-ligatures:normal;font-variant-position:normal;font-variant-caps:normal;font-variant-numeric:normal;font-variant-alternates:normal;font-feature-settings:normal;text-indent:0;text-align:start;text-decoration:none;text-decoration-line:none;text-decoration-style:solid;text-decoration-color:#000000;letter-spacing:normal;word-spacing:normal;text-transform:none;writing-mode:lr-tb;direction:ltr;text-orientation:mixed;dominant-baseline:auto;baseline-shift:baseline;text-anchor:start;white-space:normal;shape-padding:0;clip-rule:nonzero;display:inline;overflow:visible;visibility:visible;opacity:0.1;isolation:auto;mix-blend-mode:normal;color-interpolation:sRGB;color-interpolation-filters:linearRGB;solid-color:#000000;solid-opacity:1;vector-effect:none;fill:#000000;fill-opacity:1;fill-rule:nonzero;stroke:none;stroke-width:0.52914065;stroke-linecap:butt;stroke-linejoin:miter;stroke-miterlimit:4;stroke-dasharray:none;stroke-dashoffset:0;stroke-opacity:1;marker:none;color-rendering:auto;image-rendering:auto;shape-rendering:auto;text-rendering:auto;enable-background:accumulate"
     d="m 1.3483182,0.264567 c -0.1902366,0 -0.3444308,0.0037 -0.48573253,0.02739 -0.1413044,0.02373 -0.2826405,0.0731 -0.3906566,0.180858 -0.1080135,0.107759 -0.1578347,0.24955 -0.1813736,0.391169 -0.023547,0.141622 -0.026772,0.296446 -0.025848,0.487286 v 0.765291 1.031411 c -7.937e-4,0.190004 0.00238,0.344563 0.025848,0.485735 0.023547,0.14162 0.073358,0.283411 0.1813736,0.39117 0.1080161,0.107762 0.2493522,0.157139 0.3906566,0.180858 0.14130173,0.02373 0.29549593,0.02739 0.48573253,0.02739 h 1.5367831 c 0.1902367,0 0.3440949,-0.0036 0.4852167,-0.02739 C 3.5114425,4.181975 3.6527945,4.132205 3.7604561,4.024361 3.8681177,3.916517 3.9176214,3.774948 3.9413137,3.633707 3.9650087,3.492464 3.9687017,3.338577 3.9687017,3.147972 V 2.116559 1.322848 L 2.9104208,0.264567 Z"
     id="path997"
     inkscape:connector-curvature="0"
     sodipodi:nodetypes="scscccccccsscscscccs" />
  <path
     sodipodi:nodetypes="scccssscccs"
     inkscape:connector-curvature="0"
     id="path928"
     d="m 1.3485193,0.264567 c -0.74283143,0 -0.82275813,0.0763 -0.81911763,0.820633 v 1.031359 1.031358 c -0.00365,0.744335 0.076286,0.820634 0.81911763,0.820634 h 1.5364921 c 0.7428341,0 0.8191203,-0.07629 0.8191203,-0.820634 V 2.116559 1.058277 L 2.9104208,0.264567 Z"
     style="color:#000000;display:inline;overflow:visible;visibility:visible;opacity:0.2;fill:none;fill-opacity:1;fill-rule:nonzero;stroke:#000000;stroke-width:0.52914065;stroke-miterlimit:4;stroke-dasharray:none;stroke-opacity:1;marker:none;enable-background:accumulate" />
  <path
     style="color:#000000;display:inline;overflow:visible;visibility:visible;fill:url(#linearGradient920);fill-opacity:1;fill-rule:nonzero;stroke:none;stroke-width:0.26457033;marker:none;enable-background:accumulate"
     d="m 1.3485193,0.264567 c -0.74283143,0 -0.82275813,0.0763 -0.81911763,0.820633 v 1.031359 1.031358 c -0.00365,0.744335 0.076286,0.820634 0.81911763,0.820634 h 1.5364921 c 0.7428341,0 0.8191203,-0.07629 0.8191203,-0.820634 V 2.116559 1.058277 L 2.9104208,0.264567 Z"
     id="path918"
     inkscape:connector-curvature="0"
     sodipodi:nodetypes="scccssscccs" />
  <path
     id="path988"
     style="color:#000000;font-style:normal;font-variant:normal;font-weight:normal;font-stretch:normal;font-size:medium;line-height:normal;font-family:sans-serif;font-variant-ligatures:normal;font-variant-position:normal;font-variant-caps:normal;font-variant-numeric:normal;font-variant-alternates:normal;font-feature-settings:normal;text-indent:0;text-align:start;text-decoration:none;text-decoration-line:none;text-decoration-style:solid;text-decoration-color:#000000;letter-spacing:normal;word-spacing:normal;text-transform:none;writing-mode:lr-tb;direction:ltr;text-orientation:mixed;dominant-baseline:auto;baseline-shift:baseline;text-anchor:start;white-space:normal;shape-padding:0;clip-rule:nonzero;display:inline;overflow:visible;visibility:visible;opacity:1;isolation:auto;mix-blend-mode:normal;color-interpolation:sRGB;color-interpolation-filters:linearRGB;solid-color:#000000;solid-opacity:1;vector-effect:none;fill:#ad0000;fill-opacity:1;fill-rule:nonzero;stroke:none;stroke-width:0.39685547;stroke-linecap:butt;stroke-linejoin:round;stroke-miterlimit:4;stroke-dasharray:none;stroke-dashoffset:0;stroke-opacity:1;color-rendering:auto;image-rendering:auto;shape-rendering:auto;text-rendering:auto;enable-background:new"
     d="m 2.3812801,1.587418 c -0.2893738,0 -0.558799,0.05306 -0.7601238,0.232015 -0.2013247,0.178955 -0.2981575,0.462482 -0.2981575,0.826266 0,0.363785 0.094851,0.642411 0.2831723,0.821616 0.1883211,0.179201 0.4420917,0.236666 0.6965633,0.236666 0.264872,0 0.4646226,-0.05484 0.6076864,-0.139003 V 3.045656 2.645699 H 2.3812801 v 0.655743 c -0.027592,0.0013 -0.046914,0.0057 -0.078546,0.0057 -0.1962291,0 -0.3329802,-0.04175 -0.4226907,-0.127118 C 1.7903334,3.094654 1.719854,2.943353 1.719854,2.645711 c 0,-0.297642 0.068524,-0.444042 0.1648405,-0.529656 0.096317,-0.08562 0.2568184,-0.13177 0.4965853,-0.13177 0.190689,0 0.3028086,0.05787 0.3028086,0.05787 L 2.8628798,1.688184 c 0,0 -0.2016714,-0.100764 -0.4816,-0.100764 z"
     inkscape:connector-curvature="0" />
  <path
     style="color:#000000;display:inline;overflow:visible;visibility:visible;opacity:0.2;fill:#ffffff;fill-opacity:1;fill-rule:nonzero;stroke:none;stroke-width:0.26457033;marker:none;enable-background:accumulate"
     d="m 2.1167098,0.264567 v 3.703984 h 0.7683915 c 0.7428341,0 0.8190304,-0.07624 0.8190304,-0.820581 V 2.116559 1.058277 L 2.9104208,0.264567 Z"
     id="path1009"
     inkscape:connector-curvature="0"
     sodipodi:nodetypes="ccsscccc" />
  <path
     style="color:#000000;display:inline;overflow:visible;visibility:visible;opacity:0.2;fill:#ffffff;fill-opacity:1;fill-rule:nonzero;stroke:none;stroke-width:0.26457033;marker:none;enable-background:accumulate"
     d="M 0.52928787,2.116559 V 3.14797 c -0.00365,0.744334 0.076199,0.820581 0.81903033,0.820581 h 1.5367831 c 0.7428341,0 0.8190304,-0.07624 0.8190304,-0.820581 V 2.116559 Z"
     id="path1016"
     inkscape:connector-curvature="0" />
  <path
     style="color:#000000;font-style:normal;font-variant:normal;font-weight:normal;font-stretch:normal;font-size:medium;line-height:normal;font-family:sans-serif;font-variant-ligatures:normal;font-variant-position:normal;font-variant-caps:normal;font-variant-numeric:normal;font-variant-alternates:normal;font-feature-settings:normal;text-indent:0;text-align:start;text-decoration:none;text-decoration-line:none;text-decoration-style:solid;text-decoration-color:#000000;letter-spacing:normal;word-spacing:normal;text-transform:none;writing-mode:lr-tb;direction:ltr;text-orientation:mixed;dominant-baseline:auto;baseline-shift:baseline;text-anchor:start;white-space:normal;shape-padding:0;clip-rule:nonzero;display:inline;overflow:visible;visibility:visible;opacity:0.4;isolation:auto;mix-blend-mode:normal;color-interpolation:sRGB;color-interpolation-filters:linearRGB;solid-color:#000000;solid-opacity:1;vector-effect:none;fill:url(#linearGradient993);fill-opacity:1;fill-rule:nonzero;stroke:none;stroke-width:0.52914065;stroke-linecap:butt;stroke-linejoin:miter;stroke-miterlimit:4;stroke-dasharray:none;stroke-dashoffset:0;stroke-opacity:1;marker:none;color-rendering:auto;image-rendering:auto;shape-rendering:auto;text-rendering:auto;enable-background:accumulate"
     clip-path="none"
     d="m 1.3483182,0.264567 c -0.74283143,0 -0.82267083,0.07625 -0.81903033,0.82058 V 2.116559 3.14797 c -0.00365,0.744334 0.076199,0.820581 0.81903033,0.820581 h 1.5367831 c 0.7428341,0 0.8190304,-0.07624 0.8190304,-0.820581 V 2.116559 1.058277 L 2.9104208,0.264567 Z m 0,0.26457 h 1.5621026 l 0.5291406,0.52914 V 2.116559 3.14797 c 0,0.181567 -0.00582,0.315998 -0.019631,0.398406 -0.013811,0.08241 -0.029841,0.09959 -0.034103,0.103865 -0.00426,0.0043 -0.021245,0.02029 -0.1033491,0.0341 -0.082112,0.01382 -0.2161962,0.01964 -0.3973767,0.01964 H 1.3483182 c -0.1811777,0 -0.3153969,-0.0063 -0.39788723,-0.02016 -0.082493,-0.01384 -0.1000156,-0.02924 -0.104381,-0.03359 -0.00436,-0.0044 -0.019949,-0.02132 -0.03359,-0.103349 -0.013625,-0.08203 -0.019499,-0.216564 -0.018599,-0.39789 V 3.148463 2.116557 1.084629 1.0841 c -7.937e-4,-0.181328 0.00497,-0.31586 0.018599,-0.39789 0.013625,-0.08203 0.029222,-0.09899 0.03359,-0.103349 0.00437,-0.0044 0.02188,-0.01974 0.104381,-0.03359 0.08249,-0.01384 0.21670953,-0.02016 0.39788723,-0.02016 z"
     id="path937"
     inkscape:connector-curvature="0"
     sodipodi:nodetypes="scccssscccsscccscccssccccccccsccs" />
  <path
     inkscape:connector-curvature="0"
     style="color:#000000;display:inline;overflow:visible;visibility:visible;opacity:0.2;fill:#000000;fill-opacity:1;fill-rule:nonzero;stroke:none;stroke-width:0.06614863;marker:none;enable-background:accumulate"
     d="M 3.7041317,1.322848 V 1.058277 L 2.9104208,0.264567 H 2.6458504 v 0.404943 0.01553 0.0083 c 0,0.547611 0.073304,0.632051 0.6221715,0.629365 z"
     id="rect4158-0-3-62-2-3-7-3"
     sodipodi:nodetypes="ccccccscc" />
  <path
     inkscape:connector-curvature="0"
     style="color:#000000;display:inline;overflow:visible;visibility:visible;fill:#faf8f6;fill-opacity:1;fill-rule:nonzero;stroke:none;stroke-width:0.06614863;marker:none;enable-background:accumulate"
     d="M 3.7041317,1.058177 2.9104208,0.264567 v 0.294384 0.01283 0.0069 c 0,0.451778 0.020822,0.481764 0.4736364,0.47955 z"
     id="rect4158-0-3-62-6-5-5"
     sodipodi:nodetypes="ccccscc" />
</svg>
